X:80
T:Wild One, The
M:6/8
L:1/8
R:Jig
K:E Aeolian
|:"Em"EFG EAE|BEd BAG|EFG EAE|BAG "B7"F3|!
"Em"EFG EAE|BEd BAG|edB ABG|"B7"FED "Em"E3:|!
|:"Em"e2d B2d|edB ded|e2d B2d|"B7"GAF GFE|!
"Em"e2d B2d|edB ded|edB ABG|"B7"FED "Em"E3:|

